X: 5
T:Cantiga 353 'Quen a omagen'
M:2/4
L:1/8
Q:300
C:Alfonso X el Sabio
S:Jose Mª Hernansáez
R:Cantiga
K:CMin
C2G2 | G3 F | E2 EF | G3 C | C2 G2 | G3 F |
ED C2 | E4 | C2 G2 | G3 F | E2 EF | G3 C | E2 G2 |
G3 F | ED CB, | C4 :|:
G2 =A2 | F3 G | =A2 BA | G3 F | G2 GA | G3 F | E2 D2 |
E4 | G2 =A2 | F3 G | =A2 BA | G3 F | G2 GA | G3 F | ED CB, | C4 :|

